!!!!SEGMENT: pl-kk--kk-i-2--001_pacelli-asprilio--rorate-caeli.krn
!!!cenid: 16xx:1590
!!!COM: Pacelli, Asprilio
!!!COM-rismID: pe30009570
!!!CDT: 1570-1623/05/04
!!!CNT: Italian
!!!OTL: Rorate caeli
!!!PDT:
!!!AGN: Sacred
!!!SMS-siglum: PL-Kk
!!!SMS-shelfmark: Kk.I.2
!!!SMS-shelfwork: 001 W
!!!NIFC-rismSourceID: 300258017
!!!NIFC-islandoraID: pl-kk:750
!!!URL-pdf-islandora: https://repozytorium.nifc.pl/islandora/object/pl-kk%3A750/datastream/PDF/view
!!!URL-scan: https://polish.musicsources.pl/pl/lokalizacje/galeria/rekopisy/5828 @EN{Scan on Polish Music Sources Website} @PL{Skany w portalu Dziedzictwo Muzyki Polskiej w otwartym dostępie}
!!!ONB-nifc: C: 0002-0003; A: 0102-0103; T: 0206-0207; B: 0306-0307
!!!AIN: 4 empty
!!!key: d:dor
**kern	**text	**kern	**text	**kern	**text	**kern	**text
*part4	*part4	*part3	*part3	*part2	*part2	*part1	*part1
*staff4	*staff4	*staff3	*staff3	*staff2	*staff2	*staff1	*staff1
*Iempty	*	*Iempty	*	*Iempty	*	*Iempty	*
*I""BASSUS	*	*I""TENOR	*	*I""ALTUS	*	*I""CANTUS	*
*ICvox	*	*ICvox	*	*ICvox	*	*ICvox	*
*clefF4	*	*clefC4	*	*clefC4	*	*clefC3	*
*k[]	*	*k[]	*	*k[]	*	*k[]	*
*d:dor	*	*d:dor	*	*d:dor	*	*d:dor	*
*M2/1	*	*M2/1	*	*M2/1	*	*M2/1	*
*met(C|)	*	*met(C|)	*	*met(C|)	*	*met(C|)	*
=1-	=1-	=1-	=1-	=1-	=1-	=1-	=1-
*2\right	*	*2\right	*	*2\right	*	*2\right	*
!LO:TX:t=P:problem=kreska pseudotaktowa	!	!	!	!	!	!	!
!LO:TX:a:i:t=Asprili Pacelli M. C. S. R. M.	!	!	!	!	!	!	!
*	*	*lig	*	*	*	*	*
1r	.	1C	RO-	2G/	RO-	1e	RO-
.	.	.	.	1c	-ra-	.	.
1GG	Ro-	1D	.	.	.	1.g	-ra-
.	.	.	.	4B\	.	.	.
!	!	!	!	!LO:TX:t=P:problem=kreska pseudotaktowa	!	!	!
.	.	.	.	4A/	.	.	.
*	*	*Xlig	*	*	*	*	*
=2-	=2-	=2-	=2-	=2-	=2-	=2-	=2-
*	*	*lig	*	*	*	*	*
1.D	-ra-	1D	-ra-	2B\	.	.	.
.	.	.	.	2A/	-te	4f\	.
!	!	!	!	!	!	!LO:TX:t=P:problem=kreska pseudotaktowa	!
.	.	.	.	.	.	4e\	.
.	.	1A	.	2d\	cæ-	1.f	.
!LO:TX:t=P:problem=kreska pseudotaktowa	!	!	!	!LO:TX:t=P:problem=kreska pseudotaktowa	!	!	!
2F\	-te	.	.	2D/	-li	.	.
*	*	*Xlig	*	*	*	*	*
=3-	=3-	=3-	=3-	=3-	=3-	=3-	=3-
1C	cæ-	1c	.	2G/	de-	.	.
!	!	!	!	!LO:TX:t=P:problem=kreska pseudotaktowa	!	!	!
.	.	.	.	2G/	-ſu-	2e\	-te
!LO:TX:t=P:problem=kreska pseudotaktowa	!	!LO:TX:t=P:problem=kreska pseudotaktowa	!	!	!	!	!
1FF	-li	1A	-te	2F/	-per.	2c/	cæ-
!	!	!	!	!	!	!LO:TX:t=P:problem=kreska pseudotaktowa	!
.	.	.	.	4.C/	Ro-	2f\	-li
.	.	.	.	16BB/LL	.	.	.
!	!	!	!	!LO:TX:t=P:problem=kreska pseudotaktowa	!	!	!
.	.	.	.	16C/JJ	.	.	.
=4-	=4-	=4-	=4-	=4-	=4-	=4-	=4-
*	*	*lig	*	*	*	*	*
0r	.	1A	cæ-	1D	.	1.f	de-
*	*	*	*	*lig	*	*	*
.	.	1B	.	1D	-ra-	.	.
.	.	.	.	.	.	4e\	.
!	!	!	!	!	!	!LO:TX:t=P:problem=kreska pseudotaktowa	!
.	.	.	.	.	.	4d\	.
*	*	*Xlig	*	*	*	*	*
=5-	=5-	=5-	=5-	=5-	=5-	=5-	=5-
!LO:TX:t=P:problem=kreska pseudotaktowa	!	!	!	!	!	!	!
*	*	*lig	*	*	*	*	*
!	!	!	!	!LO:TX:t=P:problem=kreska pseudotaktowa	!	!	!
1r	.	1c	.	1A	.	2e\	.
.	.	.	.	.	.	2f\	-ſu-
*	*	*	*	*Xlig	*	*	*
2r	.	1A	.	1c	-te	2.e\	-per
!LO:TX:t=P:problem=kreska pseudotaktowa	!	!	!	!	!	!	!
2AA/	Ro-	.	.	.	.	.	.
.	.	.	.	.	.	8d\L	.
!	!	!	!	!	!	!LO:TX:t=P:problem=kreska pseudotaktowa	!
.	.	.	.	.	.	8e\J	.
*	*	*Xlig	*	*	*	*	*
=6-	=6-	=6-	=6-	=6-	=6-	=6-	=6-
*	*	*lig	*	*	*	*	*
2D/	-ra-	1A	-li	2d\	cæ-	2f\	.
!	!	!	!	!LO:TX:t=P:problem=kreska pseudotaktowa	!	!	!
2F\	-te	.	.	2c\	-li	2.f\	de-
!LO:TX:t=P:problem=kreska pseudotaktowa	!	!LO:TX:t=P:problem=kreska pseudotaktowa	!	!	!	!	!
1C	cæ-	1G	.	2.c\	de-	.	.
.	.	.	.	.	.	8e\L	.
.	.	.	.	.	.	8d\J	.
!	!	!	!	!	!	!LO:TX:t=P:problem=kreska pseudotaktowa	!
.	.	.	.	.	.	2e\	.
.	.	.	.	4c\	-ſu-	.	.
*	*	*Xlig	*	*	*	*	*
=7-	=7-	=7-	=7-	=7-	=7-	=7-	=7-
*	*	*lig	*	*	*	*	*
*	*	*	*	*custos:G	*	*	*
!	!	!	!	!LO:TX:t=P:problem=kreska pseudotaktowa	!	!	!
2FF,/	-li	1A	de-	1c	-per	2.f\	.
2.F\	de-	.	.	.	.	.	.
.	.	.	.	.	.	4g\	.
!	!	!LO:TX:t=P:problem=kreska pseudotaktowa	!	!LO:LB:g=original	!	!	!
.	.	1c	.	2r	.	2a\	.
8E\L	.	.	.	.	.	.	.
8D\J	.	.	.	.	.	.	.
!	!	!	!	!LO:TX:t=P:problem=kreska pseudotaktowa	!	!	!
!LO:TX:t=P:problem=kreska pseudotaktowa	!	!	!	!	!	!	!
2E\	.	.	.	2G/	Ro-	2g\	.
*	*	*Xlig	*	*	*	*	*
!	!	!	!	!LO:LB:g=original	!	!	!
=8-	=8-	=8-	=8-	=8-	=8-	=8-	=8-
*	*	*lig	*	*	*	*	*
2F\	.	1c	-ſu-	2A/	-ra-	2f\	.
*	*	*	*	*	*	*custos:g	*
!	!	!	!	!LO:TX:t=P:problem=kreska pseudotaktowa	!	!LO:TX:t=P:problem=kreska pseudotaktowa	!
2A\	-ſu-	.	.	2c\	-te	2e\	.
2.G\	-per	1B	.	2d\	cæ-	1.g	.
.	.	.	.	2d\	-li	.	.
!LO:TX:t=P:problem=kreska pseudotaktowa	!	!	!	!	!	!	!
4F\	.	.	.	.	.	.	.
*	*	*Xlig	*	*	*	*	*
!	!	!	!	!	!	!LO:LB:g=original	!
=9-	=9-	=9-	=9-	=9-	=9-	=9-	=9-
*	*	*lig	*	*	*	*	*
2E\	.	1c	.	4d\	de-	.	.
.	.	.	.	4c\	.	.	.
!	!	!	!	!	!	!LO:TX:t=P:problem=kreska pseudotaktowa	!
2C/	.	.	.	1c	.	2g\	-ſu-
*	*	*custos:c	*	*	*	*	*
1G	.	1d	.	.	.	2g,\	-per
!	!	!	!	!LO:TX:t=P:problem=kreska pseudotaktowa	!	!LO:TX:t=P:problem=kreska pseudotaktowa	!
.	.	.	.	2B\	-ſu-	2d\	et
*	*	*Xlig	*	*	*	*	*
!	!	!LO:LB:g=original	!	!	!	!LO:LB:g=original	!
=10-	=10-	=10-	=10-	=10-	=10-	=10-	=10-
*	*	*lig	*	*	*	*	*
2C/	de-	1c	.	2c\	-per	4e\	nu-
.	.	.	.	.	.	4d\	.
*custos:GG	*	*	*	*	*	*	*
!LO:TX:t=P:problem=kreska pseudotaktowa	!	!	!	!LO:TX:t=P:problem=kreska pseudotaktowa	!	!	!
2C/	-ſu-	.	.	2G/	et	4e\	.
.	.	.	.	.	.	4f\	.
!LO:TX:t=P:problem=kreska pseudotaktowa	!	!	!	!	!	!	!
!LO:LB:g=original	!	!	!	!	!	!	!
0GG	-per	1d	.	4B\	nu-	2g\	.
.	.	.	.	4A/	.	.	.
!	!	!	!	!	!	!LO:TX:t=P:problem=kreska pseudotaktowa	!
.	.	.	.	4B\	.	2G/	-bes
.	.	.	.	4c\	.	.	.
*	*	*Xlig	*	*	*	*	*
=11-	=11-	=11-	=11-	=11-	=11-	=11-	=11-
*	*	*lig	*	*	*	*	*
.	.	1d	-per.	2d\	.	2B/	plu-
!	!	!	!	!LO:TX:t=P:problem=kreska pseudotaktowa	!	!	!
.	.	.	.	2B\	-bes	2G/	-ant
!	!	!LO:TX:t=P:problem=kreska pseudotaktowa	!	!	!	!	!
2r	.	1c	.	0e	plu-	0g	iuſ-
!LO:TX:t=P:problem=kreska pseudotaktowa	!	!	!	!	!	!	!
2C/	et	.	.	.	.	.	.
*	*	*Xlig	*	*	*	*	*
=12-	=12-	=12-	=12-	=12-	=12-	=12-	=12-
4E\	nu-	1G	et	.	.	.	.
4D/	.	.	.	.	.	.	.
4E\	.	.	.	.	.	.	.
!LO:TX:t=P:problem=kreska pseudotaktowa	!	!	!	!	!	!	!
4F\	.	.	.	.	.	.	.
*	*	*lig	*	*	*	*	*
!	!	!	!	!	!	!LO:TX:t=P:problem=kreska pseudotaktowa	!
2G\	.	1B	nu-	2d\	-ant	1g	-tum
!LO:TX:t=P:problem=kreska pseudotaktowa	!	!	!	!	!	!	!
2E\	-bes	.	.	1e\	iu-	.	.
=13-	=13-	=13-	=13-	=13-	=13-	=13-	=13-
!	!	!	!	!	!	!LO:TX:t=P:problem=kreska pseudotaktowa	!
4A\	plu-	1c	.	.	.	1r	.
4G\	.	.	.	.	.	.	.
!	!	!	!	!LO:TX:t=P:problem=kreska pseudotaktowa	!	!LO:TX:t=P:problem=kreska pseudotaktowa	!
4F\	.	.	.	2A/	-ſtum	.	.
!LO:TX:t=P:problem=kreska pseudotaktowa	!	!	!	!	!	!	!
4E\	.	.	.	.	.	.	.
*	*	*Xlig	*	*	*	*	*
(4F\	.	1A	.	1r	.	1c	et
4G\	.	.	.	.	.	.	.
4A\	.	.	.	.	.	.	.
!LO:TX:t=P:problem=kreska pseudotaktowa	!	!	!	!	!	!	!
4B\)	.	.	.	.	.	.	.
=14-	=14-	=14-	=14-	=14-	=14-	=14-	=14-
!	!	!LO:TX:t=P:problem=kreska pseudotaktowa	!	!	!	!	!
2c\	.	1A	-bes	1r	.	4e\	nu-
.	.	.	.	.	.	4d\	.
2A\	-ant	.	.	.	.	4e\	.
.	.	.	.	.	.	4f\	.
*	*	*lig	*	*	*	*	*
1G	iu-	1B	plu-	2r	.	2g\	.
!	!	!	!	!LO:TX:t=P:problem=kreska pseudotaktowa	!	!LO:TX:t=P:problem=kreska pseudotaktowa	!
.	.	.	.	2G/	et	2e\	-bes
=15-	=15-	=15-	=15-	=15-	=15-	=15-	=15-
!LO:TX:t=P:problem=kreska pseudotaktowa	!	!	!	!	!	!	!
1F,	-ſtum	1c	.	4A/	nu-	4f\	plu-
.	.	.	.	4G/	.	8e\L	.
.	.	.	.	.	.	8d\J	.
.	.	.	.	4A/	.	4c/	.
!	!	!	!	!LO:TX:t=P:problem=kreska pseudotaktowa	!	!LO:TX:t=P:problem=kreska pseudotaktowa	!
.	.	.	.	4B\	.	4d\	.
*	*	*Xlig	*	*	*	*	*
2r	.	1A	.	1c	.	2e\	.
!LO:TX:t=P:problem=kreska pseudotaktowa	!	!	!	!	!	!	!
2FF/	et	.	.	.	.	2f\	.
=16-	=16-	=16-	=16-	=16-	=16-	=16-	=16-
!	!	!LO:TX:t=P:problem=kreska pseudotaktowa	!	!LO:TX:t=P:problem=kreska pseudotaktowa	!	!	!
4AA/	nu-	1A	-ant	1c	-bes	2.e\	.
4GG/	.	.	.	.	.	.	.
4AA/	.	.	.	.	.	.	.
!LO:TX:t=P:problem=kreska pseudotaktowa	!	!	!	!	!	!LO:TX:t=P:problem=kreska pseudotaktowa	!
4BB/	.	.	.	.	.	4d\	.
*	*	*lig	*	*	*	*	*
2C/	.	1G	iu-	2r	.	2c/	.
!LO:TX:t=P:problem=kreska pseudotaktowa	!	!	!	!	!	!	!
2E\	-bes	.	.	2G/	et	2B/	-ant
=17-	=17-	=17-	=17-	=17-	=17-	=17-	=17-
4D/	plu-	1F	.	4A/	nu-	2d\	iuſ-
*	*	*	*	*custos:A	*	*	*
!	!	!	!	!LO:TX:t=P:problem=kreska pseudotaktowa	!	!	!
4E\	.	.	.	4G/	.	.	.
!	!	!	!	!LO:LB:g=original	!	!LO:TX:t=P:problem=kreska pseudotaktowa	!
(2.F\	.	.	.	4A/	.	2c/	-tum
!	!	!	!	!LO:TX:t=P:problem=kreska pseudotaktowa	!	!	!
.	.	.	.	4B\	.	.	.
!LO:TX:t=P:problem=kreska pseudotaktowa	!	!	!	!	!	!	!
*	*	*Xlig	*	*	*	*	*
*	*	*lig	*	*	*	*	*
.	.	1A	.	2c\	.	2r	.
8E\L)	.	.	.	.	.	.	.
8D\J	.	.	.	.	.	.	.
1C/	.	.	.	2e\	-bes	4c/	iu-
*	*	*	*	*	*	*custos:e	*
!	!	!	!	!	!	!LO:TX:t=P:problem=kreska pseudotaktowa	!
.	.	.	.	.	.	4d\	.
!	!	!	!	!	!	!LO:LB:g=original	!
=18-	=18-	=18-	=18-	=18-	=18-	=18-	=18-
.	.	1G	.	2c\	plu-	4e\	.
.	.	.	.	.	.	4c/	.
!	!	!	!	!LO:TX:t=P:problem=kreska pseudotaktowa	!	!	!
!LO:TX:t=P:problem=kreska pseudotaktowa	!	!	!	!	!	!	!
2GG/	-ant	.	.	2B\	-ant	2.d\	.
*	*	*Xlig	*	*	*	*	*
*lig	*	*lig	*	*	*	*	*
1D	iu-	1F	.	2.A/	iu-	.	.
.	.	.	.	.	.	4e\	.
.	.	.	.	.	.	1f\	.
.	.	.	.	4B\	.	.	.
=19-	=19-	=19-	=19-	=19-	=19-	=19-	=19-
*custos:F	*	*	*	*	*	*	*
!LO:TX:t=P:problem=kreska pseudotaktowa	!	!	!	!	!	!	!
1C	.	1G	.	1c	.	.	.
!LO:LB:g=original	!	!	!	!	!	!LO:TX:t=P:problem=kreska pseudotaktowa	!
.	.	.	.	.	.	2e\	.
*Xlig	*	*Xlig	*	*	*	*	*
!LO:TX:t=P:problem=kreska pseudotaktowa	!	!	!	!	!	!	!
1F	-ſtum	1F	.	2A/	-ſtum,	1f	-ſtum
!	!	!	!	!LO:TX:t=P:problem=kreska pseudotaktowa	!	!	!
.	.	.	.	2A/	a-	.	.
=20-	=20-	=20-	=20-	=20-	=20-	=20-	=20-
!	!	!LO:TX:t=P:problem=kreska pseudotaktowa	!	!	!	!	!
2r	.	1F	-ſtum	2A/	-pe-	2r	.
!	!	!	!	!	!	!LO:TX:t=P:problem=kreska pseudotaktowa	!
2D/	a-	.	.	2A/	-ri-	2f\	a-
2D/	-pe-	1F	a-	4A/	-a-	2f\	-pe-
.	.	.	.	4G/	.	.	.
!LO:TX:t=P:problem=kreska pseudotaktowa	!	!	!	!	!	!	!
2D/	-ri-	.	.	4A/	.	2f\	-ri-
!	!	!	!	!LO:TX:t=P:problem=kreska pseudotaktowa	!	!	!
.	.	.	.	4B\	.	.	.
=21-	=21-	=21-	=21-	=21-	=21-	=21-	=21-
*	*	*custos:A	*	*	*	*	*
2C/	-a-	1G	-pe-	4c\	.	2e\	-a-
.	.	.	.	4C/	.	.	.
2BB,/	-tur	.	.	4D/	.	1d	-tur
!	!	!	!	!LO:TX:t=P:problem=kreska pseudotaktowa	!	!	!
.	.	.	.	4E/	.	.	.
!	!	!LO:LB:g=original	!	!	!	!	!
1AA	ter-	1A	-ri-	4F/	.	.	.
.	.	.	.	8E/L	.	.	.
.	.	.	.	8D/J	.	.	.
!	!	!	!	!LO:TX:t=P:problem=kreska pseudotaktowa	!	!LO:TX:t=P:problem=# below	!
.	.	.	.	2E/	.	2c#X/	ter-
=22-	=22-	=22-	=22-	=22-	=22-	=22-	=22-
!LO:TX:t=P:problem=kreska pseudotaktowa	!	!	!	!	!	!	!
*	*	*lig	*	*	*	*	*
1D	-ra	1A	-a-	2F/	-tur.	2d\	-ra
.	.	.	.	2f\	A-	1A	a-
2r	.	1c	.	2f\	-pe-	.	.
!	!	!	!	!LO:TX:t=P:problem=kreska pseudotaktowa	!	!	!
2AA/	a-	.	.	2f\	-ri-	1c\	-pe-
*	*	*Xlig	*	*	*	*	*
=23-	=23-	=23-	=23-	=23-	=23-	=23-	=23-
!	!	!LO:TX:t=P:problem=kreska pseudotaktowa	!	!	!	!	!
2C/	-pe-	1G	-tur	2e\	-a-	.	.
!LO:TX:t=P:problem=kreska pseudotaktowa	!	!	!	!	!	!LO:TX:t=P:problem=kreska pseudotaktowa	!
2GG/	-ri-	.	.	1d	-tur	2B/	-ri-
*lig	*	*lig	*	*	*	*	*
1D	-a-	1F	ter-	.	.	2.A/	-a-
.	.	.	.	2.f\	ter-	.	.
.	.	.	.	.	.	4B/	-tur
=24-	=24-	=24-	=24-	=24-	=24-	=24-	=24-
1C	.	1G	.	.	.	2.c/	ter-
.	.	.	.	8e\L	.	.	.
.	.	.	.	8d\J	.	.	.
*	*	*	*	*custos:f	*	*	*
!	!	!	!	!LO:TX:t=P:problem=kreska pseudotaktowa	!	!	!
.	.	.	.	2e\	.	.	.
!	!	!	!	!	!	!LO:TX:t=P:problem=kreska pseudotaktowa	!
.	.	.	.	.	.	4B/	.
*Xlig	*	*Xlig	*	*	*	*	*
!LO:TX:t=P:problem=kreska pseudotaktowa	!	!	!	!LO:LB:g=original	!	!	!
*	*	*lig	*	*	*	*	*
1FF	-tur	1F	.	1.f	.	4A/	.
.	.	.	.	.	.	4G/	.
.	.	.	.	.	.	4A/	.
.	.	.	.	.	.	8G/L	.
!	!	!	!	!	!	!LO:TX:t=P:problem=kreska pseudotaktowa	!
.	.	.	.	.	.	8A/J	.
=25-	=25-	=25-	=25-	=25-	=25-	=25-	=25-
*lig	*	*	*	*	*	*	*
1BB-X	ter-	1D	.	.	.	0B-X	.
!	!	!	!	!LO:TX:t=P:problem=kreska pseudotaktowa	!	!	!
.	.	.	.	2d\	-ra	.	.
*	*	*Xlig	*	*	*	*	*
!LO:TX:t=P:problem=kreska pseudotaktowa	!	!LO:TX:t=P:problem=kreska pseudotaktowa	!	!	!	!	!
1GG	.	1D	-ra	2r	.	.	.
.	.	.	.	1d\	et	.	.
*Xlig	*	*	*	*	*	*	*
=26-	=26-	=26-	=26-	=26-	=26-	=26-	=26-
!	!	!LO:TX:t=P:problem=kreska pseudotaktowa	!	!	!	!LO:TX:t=P:problem=kreska pseudotaktowa	!
2D,/	-ra	1F	et	.	.	0A	-ra
!	!	!	!	!LO:TX:t=P:problem=kreska pseudotaktowa	!	!	!
1D	et	.	.	<2.f	ger-	.	.
!	!	!	!	!LO:N:xstem:cue	!	!	!
.	.	1F	ger-	.	.	.	.
.	.	.	.	4e\)	-mi-	.	.
2.F\	ger-	.	.	2d\	-net	.	.
=27-	=27-	=27-	=27-	=27-	=27-	=27-	=27-
.	.	1G	-mi-	2.c\	ſal-	1r	.
4F\	-mi-	.	.	.	.	.	.
!LO:TX:t=P:problem=kreska pseudotaktowa	!	!	!	!	!	!	!
2E\	-net	.	.	.	.	.	.
!	!	!	!	!LO:TX:t=P:problem=kreska pseudotaktowa	!	!	!
.	.	.	.	4G/	-ua-	.	.
*lig	*	*lig	*	*	*	*	*
*	*	*	*	*	*	*custos:f	*
1D	ſal-	1F	-net	4A/	-to-	2d\	et
.	.	.	.	4G/	.	.	.
!	!	!	!	!	!	!LO:LB:g=original	!
!	!	!	!	!	!	!LO:TX:t=P:problem=kreska pseudotaktowa	!
.	.	.	.	4A/	.	2.f\	ger-
.	.	.	.	4B\	.	.	.
!	!	!	!	!	!	!LO:LB:g=original	!
=28-	=28-	=28-	=28-	=28-	=28-	=28-	=28-
1C	.	1G	.	2.c\	.	.	.
.	.	.	.	.	.	4f\	-mi-
!	!	!	!	!	!	!LO:TX:t=P:problem=kreska pseudotaktowa	!
.	.	.	.	.	.	2e\	-net
!	!	!	!	!LO:TX:t=P:problem=kreska pseudotaktowa	!	!	!
.	.	.	.	4B\	.	.	.
*Xlig	*	*Xlig	*	*	*	*	*
!LO:TX:t=P:problem=kreska pseudotaktowa	!	!	!	!	!	!	!
*	*	*lig	*	*	*	*	*
1FF	-ua-	1F	.	4A/	.	2d\	ſal-
.	.	.	.	4G/	.	.	.
.	.	.	.	2A/	.	2c/	-ua-
=29-	=29-	=29-	=29-	=29-	=29-	=29-	=29-
!	!	!LO:TX:t=P:problem=kreska pseudotaktowa	!	!	!	!	!
2GG/	-to-	1D	.	2G/	.	4B-X/	-to-
.	.	.	.	.	.	8A/L	.
.	.	.	.	.	.	8G/J	.
!	!	!	!	!LO:LB:g=original	!	!LO:TX:t=P:problem=kreska pseudotaktowa	!
2D/	.	.	.	2F#X/	.	2A/	.
!	!	!	!	!LO:TX:t=P:problem=kreska pseudotaktowa	!	!	!
*	*	*Xlig	*	*	*	*	*
*custos:D	*	*	*	*	*	*	*
!LO:TX:t=P:problem=kreska pseudotaktowa	!	!	!	!	!	!	!
*	*	*lig	*	*lig	*	*	*
1GG	-rum	1D	ſal-	1G	.	2B-/	.
.	.	.	.	.	.	1d\	.
!LO:LB:g=original	!	!	!	!	!	!	!
=30-	=30-	=30-	=30-	=30-	=30-	=30-	=30-
2D,/	et	1F	.	1A	.	.	.
!LO:TX:t=P:problem=kreska pseudotaktowa	!	!	!	!	!	!	!
2.F\	ger-	.	.	.	.	4c/	.
!	!	!	!	!	!	!LO:TX:t=P:problem=kreska pseudotaktowa	!
.	.	.	.	.	.	4Bny/	.
*	*	*Xlig	*	*Xlig	*	*	*
*	*	*lig	*	*	*	*	*
!	!	!	!	!LO:TX:t=P:problem=kreska pseudotaktowa	!	!	!
.	.	1C	-ua-	1G	-rem	1c,	-rem
4F\	-mi-	.	.	.	.	.	.
!LO:TX:t=P:problem=kreska pseudotaktowa	!	!	!	!	!	!	!
2E\	-net	.	.	.	.	.	.
=31-	=31-	=31-	=31-	=31-	=31-	=31-	=31-
2.D/	ſal-	1F	.	1A	et	2d\	et
.	.	.	.	.	.	2.f\	ger-
!LO:TX:t=P:problem=kreska pseudotaktowa	!	!	!	!	!	!	!
4C/	.	.	.	.	.	.	.
*	*	*Xlig	*	*	*	*	*
2BB-X/	.	1D	.	2.B-X\	ger-	.	.
.	.	.	.	.	.	4f\	-mi-
!LO:TX:t=P:problem=kreska pseudotaktowa	!	!	!	!	!	!LO:TX:t=P:problem=kreska pseudotaktowa	!
2GG/	-ua-	.	.	.	.	2g\	-ner
!	!	!	!	!LO:TX:t=P:problem=kreska pseudotaktowa	!	!	!
.	.	.	.	4B-\	-mi-	.	.
=32-	=32-	=32-	=32-	=32-	=32-	=32-	=32-
*	*	*custos:E	*	*	*	*	*
1D	-to-	1D	-to-	2A/	-net	2f\	ſal-
.	.	.	.	1A	ſal-	2d\	-ua-
!LO:TX:t=P:problem=kreska pseudotaktowa	!	!	!	!	!	!	!
1AA,	-rum.	1E	.	.	.	4c/	-to-
.	.	.	.	.	.	4d\	.
!	!	!LO:LB:g=original	!	!	!	!LO:TX:t=P:problem=kreska pseudotaktowa	!
.	.	.	.	2A/	-ua-	y2.e\	.
=33-	=33-	=33-	=33-	=33-	=33-	=33-	=33-
!	!	!	!	!	!	!LO:N:xstem:cue	!
2.FF/	ſal-	1F	.	0A	-to-	.	.
.	.	.	.	.	.	4d\	.
.	.	.	.	.	.	1d	.
4GG/	-ua-	.	.	.	.	.	.
1AA	-to-	1E	-rem:	.	.	.	.
!	!	!	!	!	!	!LO:TX:t=P:problem=# below	!
.	.	.	.	.	.	2c#X/	.
=34-	=34-	=34-	=34-	=34-	=34-	=34-	=34-
0D;	-rum:	0D	.	0A	-rem:	0d	-rem:
!	!	!	!	!LO:LB:g=original	!	!LO:LB:g=original	!
=35||	=35||	=35||	=35||	=35||	=35||	=35||	=35||
*M2/1	*	*M2/1	*	*M2/1	*	*M2/1	*
*met(C|)	*	*met(C|)	*	*met(C|)	*	*met(C|)	*
1D	Be-	1F	Be-	1A	Be-	0r	.
*	*	*lig	*	*	*	*	*
2GG/	-ne-	1G	-ne-	2B\	-ne-	.	.
!LO:TX:t=P:problem=kreska pseudotaktowa	!	!	!	!LO:TX:t=P:problem=kreska pseudotaktowa	!	!	!
2G\	-di-	.	.	2B\	-di-	.	.
=36-	=36-	=36-	=36-	=36-	=36-	=36-	=36-
!	!	!	!	!	!	!LO:TX:t=P:problem=kreska pseudotaktowa	!
2.F\	-xi-	1A	.	4c\	-xi-	1c	Be-
.	.	.	.	4B\	.	.	.
.	.	.	.	4A/	.	.	.
!	!	!	!	!LO:TX:t=P:problem=kreska pseudotaktowa	!	!	!
!LO:TX:t=P:problem=kreska pseudotaktowa	!	!	!	!	!	!	!
4E\	.	.	.	4G/	.	.	.
*	*	*Xlig	*	*	*	*lig	*
2D/	.	1A	-di-	4F/	.	1d	-ne-
.	.	.	.	4D/	-ſti	.	.
!LO:TX:t=P:problem=kreska pseudotaktowa	!	!	!	!	!	!	!
2D/	-ſti	.	.	2.d\	Do-	.	.
=37-	=37-	=37-	=37-	=37-	=37-	=37-	=37-
2.AA/	Do-	1A	-xi-	.	.	1e	.
.	.	.	.	8c\L	.	.	.
.	.	.	.	8B\J	.	.	.
!	!	!	!	!LO:TX:t=P:problem=# below	!	!	!
.	.	.	.	4c#X\	.	.	.
!	!	!	!	!LO:TX:t=P:problem=kreska pseudotaktowa	!	!	!
!LO:TX:t=P:problem=kreska pseudotaktowa	!	!	!	!	!	!	!
4BB/	.	.	.	4d\	.	.	.
*	*	*	*	*	*	*Xlig	*
!	!	!LO:TX:t=P:problem=kreska pseudotaktowa	!	!	!	!	!
2C/	.	1A	-ſti	2e\	.	2e\	-di-
2D/	-mi-	.	.	1d\	.	1f\	-xi-
!LO:LB:g=original	!	!	!	!	!	!	!
=38-	=38-	=38-	=38-	=38-	=38-	=38-	=38-
!LO:TX:t=P:problem=kreska pseudotaktowa	!	!	!	!	!	!	!
0AA	-ne	1A	Do-	.	.	.	.
!	!	!	!	!LO:TX:t=P:problem=# below	!	!	!
.	.	.	.	4c#X\	.	4e\	.
!	!	!	!	!LO:TX:t=P:problem=kreska pseudotaktowa	!	!LO:TX:t=P:problem=kreska pseudotaktowa	!
.	.	.	.	4B\	.	4d\	.
!	!	!	!	!LO:TX:t=P:problem=# below	!	!	!
.	.	1A	-mi-	2c#X\	.	2e\	.
!	!	!	!	!LO:TX:t=P:problem=# below	!	!	!
.	.	.	.	2c#X\	-mi-	2e\	-ſti
=39-	=39-	=39-	=39-	=39-	=39-	=39-	=39-
!	!	!LO:TX:t=P:problem=kreska pseudotaktowa	!	!	!	!	!
2.D/	ter-	1A	-ne	2d\	-ne	2f\	Do-
.	.	.	.	1A	ter-	2d\	-mi-
!LO:TX:t=P:problem=kreska pseudotaktowa	!	!	!	!	!	!	!
4E\	.	.	.	.	.	.	.
*	*	*lig	*	*	*	*	*
2F\	.	1A	ter-	.	.	2c/	-ne
!LO:TX:t=P:problem=kreska pseudotaktowa	!	!	!	!LO:TX:t=P:problem=kreska pseudotaktowa	!	!	!
2D/	-ram	.	.	2F/	-ram	1f\	ter-
=40-	=40-	=40-	=40-	=40-	=40-	=40-	=40-
!LO:TX:t=P:problem=kreska pseudotaktowa	!	!	!	!	!	!	!
1C	tu-	1c	.	1G	tu-	.	.
!	!	!	!	!	!	!LO:TX:t=P:problem=kreska pseudotaktowa	!
.	.	.	.	.	.	2e\	.
*	*	*Xlig	*	*	*	*	*
!	!	!LO:TX:t=P:problem=kreska pseudotaktowa	!	!	!	!	!
2FF,/	-am	1A	-ram	4F/	-am:	2f\	-ram
.	.	.	.	4G/	.	.	.
!LO:TX:t=P:problem=kreska pseudotaktowa	!	!	!	!	!	!	!
2.FF/	ter-	.	.	4A/	.	4F/	ter-
!	!	!	!	!	!	!LO:TX:t=P:problem=kreska pseudotaktowa	!
.	.	.	.	4B\	.	4G/	.
=41-	=41-	=41-	=41-	=41-	=41-	=41-	=41-
*	*	*lig	*	*	*	*	*
.	.	1A	tu-	2c\	.	4A/	.
4GG/	.	.	.	.	.	4B/	.
4AA/	.	.	.	1c	ter-	4c/	.
!LO:TX:t=P:problem=kreska pseudotaktowa	!	!	!	!	!	!	!
4BB/	.	.	.	.	.	4d\	.
*	*	*custos:G	*	*	*	*	*
4C/	.	1G	.	.	.	4e\	.
4D/	.	.	.	.	.	4f\	.
*	*	*	*	*custos:B	*	*	*
!	!	!	!	!LO:TX:t=P:kreska:problem	!	!LO:TX:t=P:problem=kreska pseudotaktowa	!
4E\	.	.	.	2c\	-ram	2g\	.
!LO:TX:t=P:problem=kreska pseudotaktowa	!	!	!	!	!	!	!
4F\	.	.	.	.	.	.	.
*	*	*Xlig	*	*	*	*	*
!	!	!LO:LB:g=original	!	!LO:PB:g=original	!	!	!
=42-	=42-	=42-	=42-	=42-	=42-	=42-	=42-
*	*	*lig	*	*	*	*	*
!	!	!	!	!	!	!LO:TX:t=P:problem=# below	!
!	!	!	!	!	!	!LO:TX:t=P:problem=kreska pseudotaktowa	!
2G\	.	1G	-am;	4B\	tu-	2d\	-ram
.	.	.	.	4A/	.	.	.
!LO:TX:t=P:problem=kreska pseudotaktowa	!	!	!	!	!	!	!
2E\	-ram	.	.	4B\	.	1g	tu-
!	!	!	!	!LO:TX:t=P:problem=kreska pseudotaktowa	!	!	!
.	.	.	.	4c\	.	.	.
!LO:PB:g=original	!	!LO:TX:t=P:problem=kreska pseudotaktowa	!	!	!	!	!
1D	tu-	1A	.	1d	.	.	.
!	!	!	!	!	!	!LO:TX:t=P:problem=kreska pseudotaktowa	!
.	.	.	.	.	.	2f#X\	.
*	*	*Xlig	*	*	*	*	*
=43-	=43-	=43-	=43-	=43-	=43-	=43-	=43-
!LO:TX:t=P:problem=kreska pseudotaktowa	!	!	!	!	!	!	!
*	*	*lig	*	*	*	*	*
1GG	-am	1G	a-	1B	-am	2g\	-am
.	.	.	.	.	.	2.d\	a-
2D/	a-	1F	.	2.A/	a-	.	.
*	*	*	*	*	*	*custos:f	*
.	.	.	.	.	.	4e\	.
!	!	!	!	!	!	!LO:PB:g=original	!
2D/	-uer-	.	.	.	.	1f\	.
!	!	!	!	!LO:TX:t=P:problem=kreska pseudotaktowa	!	!	!
.	.	.	.	4B\	-uer-	.	.
*	*	*Xlig	*	*	*	*	*
=44-	=44-	=44-	=44-	=44-	=44-	=44-	=44-
*	*	*lig	*	*	*	*	*
1C	-ti-	1G	-uer-	1.c	-ti-	.	.
.	.	.	.	.	.	4e\	.
!	!	!	!	!	!	!LO:TX:t=P:problem=kreska pseudotaktowa	!
.	.	.	.	.	.	4d\	.
2AA,/	-ſti	1A	.	.	.	2e\	.
!	!	!	!	!LO:TX:t=P:problem=kreska pseudotaktowa	!	!	!
2D/	cap-	.	.	2A/	-ſti	2f\	-uer-
*	*	*Xlig	*	*	*	*	*
=45-	=45-	=45-	=45-	=45-	=45-	=45-	=45-
!LO:TX:t=P:problem=kreska pseudotaktowa	!	!	!	!	!	!	!
2D/	-ti-	1A	-ti-	1r	.	1e	-ti-
!LO:TX:t=P:problem=# below	!	!	!	!	!	!	!
2C#X/	-ui-	.	.	.	.	.	.
!	!	!LO:TX:t=P:problem=kreska pseudotaktowa	!	!	!	!	!
2.D/	-ta-	1A	-ſti	2r	.	2f\	-ſti
!	!	!	!	!LO:TX:t=P:problem=kreska pseudotaktowa	!	!LO:TX:t=P:problem=kreska pseudotaktowa	!
.	.	.	.	2f\	cap-	2d\	cap-
4E\	.	.	.	.	.	.	.
=46-	=46-	=46-	=46-	=46-	=46-	=46-	=46-
4F\	.	1A	ca-	2f\	-ti-	2d\	-ti-
4G\	.	.	.	.	.	.	.
!	!	!	!	!	!	!LO:TX:t=P:problem=# below	!
!LO:TX:t=P:problem=kreska pseudotaktowa	!	!	!	!	!	!LO:TX:t=P:problem=kreska pseudotaktowa	!
2A\	.	.	.	2e\	-ui-	2c#X/	-ui-
0D	-tem	1A	-pti-	4f\	-ta-	2.d\	-ta-
.	.	.	.	4e\	.	.	.
.	.	.	.	4d\	.	.	.
!	!	!	!	!LO:TX:t=P:problem=kreska pseudotaktowa	!	!	!
.	.	.	.	4c\	.	4e\	.
=47-	=47-	=47-	=47-	=47-	=47-	=47-	=47-
*	*	*lig	*	*	*	*	*
!	!	!	!	!	!	!LO:TX:t=P:problem=kreska pseudotaktowa	!
!	!	!	!	!	!	!LO:TX:t=P:problem=# below	!
.	.	1A	-ui-	0d	.	1f#X	.
1G	Ja-	1B	.	.	.	2g\	-tem
.	.	.	.	.	.	4g\	Ja-
!	!	!	!	!	!	!LO:TX:t=P:problem=niewyraźny kasownik	!
.	.	.	.	.	.	4fn\	.
*	*	*Xlig	*	*	*	*	*
=48-	=48-	=48-	=48-	=48-	=48-	=48-	=48-
*	*	*lig	*	*	*	*	*
2C,/	-cob	1c	.	2c\	-tem	4e'\	.
.	.	.	.	.	.	4d'\	.
!LO:TX:t=P:problem=kreska pseudotaktowa	!	!	!	!LO:TX:t=P:problem=kreska pseudotaktowa	!	!LO:TX:t=P:problem=kreska pseudotaktowa	!
2C/	ca-	.	.	2G/	cap-	2e\	.
!	!	!	!	!	!	!LO:TX:t=P:problem=kreska pseudotaktowa	!
2D/	-pti-	1A	.	2G/	-ti-	0.d	-cob.
!	!	!	!	!LO:TX:t=P:problem=# below	!	!	!
2D/	-ui-	.	.	2F#X/	-ui-	.	.
*	*	*Xlig	*	*	*	*	*
=49-	=49-	=49-	=49-	=49-	=49-	=49-	=49-
1GG	-ta-	1G	-ta-	2G/	-ta-	.	.
!	!	!	!	!LO:TX:t=P:problem=# above	!	!	!
.	.	.	.	2B-X\	-tem	.	.
!	!	!LO:TX:t=P:problem=kreska pseudotaktowa	!	!	!	!	!
0D	-tem	1F	-tem	0.A	Ja-	.	.
=50-	=50-	=50-	=50-	=50-	=50-	=50-	=50-
*	*	*lig	*	*	*	*	*
.	.	1F	Ja-	.	.	2r	.
.	.	.	.	.	.	1d	Ja-
1AA	Ja-	1E	.	.	.	.	.
!	!	!	!	!	!	!LO:TX:t=P:problem=# below	!
.	.	.	.	.	.	2c#X/	.
*	*	*Xlig	*	*	*	*	*
=51-	=51-	=51-	=51-	=51-	=51-	=51-	=51-
0D	-cob.	0D	-cob.	0A	-cob	0d	-cob.
!	!	!LO:PB:g=original	!	!LO:LB:g=original	!	!LO:LB:g=original	!
=52||	=52||	=52||	=52||	=52||	=52||-	=52||	=52||
*M2/1	*	*M2/1	*	*M2/1	*	*M2/1	*
*met(C|)	*	*met(C|)	*	*met(C|)	*	*met(C|)	*
1D	Glo-	1F	Glo-	1A	Glo-	2r	.
.	.	.	.	.	.	1f	Glo-
*	*	*lig	*	*	*	*	*
2BB-X/	-ri-	1G	-ri-	2d\	-ri-	.	.
!	!	!	!	!	!	!LO:TX:t=P:problem=kreska pseudotaktowa	!
2C/	-a	.	.	1c\	-a	2e\	-ri-
=53-	=53-	=53-	=53-	=53-	=53-	=53-	=53-
2.FF/	Pa-	1A	.	.	.	2f\	-a
!	!	!	!	!LO:TX:t=P:problem=kreska pseudotaktowa	!	!	!
.	.	.	.	2f\	Pa-	1d	Pa-
!LO:TX:t=P:problem=kreska pseudotaktowa	!	!	!	!	!	!	!
4GG/	.	.	.	.	.	.	.
*	*	*Xlig	*	*	*	*	*
!	!	!LO:TX:t=P:problem=kreska pseudotaktowa	!	!	!	!	!
1AA	.	1A	-a	1.e	-tri	.	.
.	.	.	.	.	.	4c/	.
!	!	!	!	!	!	!LO:TX:t=P:problem=# below	!
.	.	.	.	.	.	4B#X/	.
=54-	=54-	=54-	=54-	=54-	=54-	=54-	=54-
2AA,/	-tri	1A	Pa-	.	.	1c	.
2AA/	et	.	.	2e\	et	.	.
!	!	!LO:TX:t=P:problem=kreska pseudotaktowa	!	!	!	!	!
2D/	fi-	1A	-tri	2f\	Fi-	2d\	-tri
!	!	!	!	!	!	!LO:TX:t=P:problem=kreska pseudotaktowa	!
4C#X/	.	.	.	4e\	.	2r	.
!LO:TX:t=P:problem=kreska pseudotaktowa	!	!	!	!LO:TX:t=P:problem=kreska pseudotaktowa	!	!	!
4BBny/	.	.	.	4d\	.	.	.
=55-	=55-	=55-	=55-	=55-	=55-	=55-	=55-
2C'/	.	1A	et	2e\	.	2r	.
!	!	!	!	!	!	!LO:TX:t=P:problem=kreska pseudotaktowa	!
2D/	-li-	.	.	1d	.	2f\	et
!LO:TX:t=P:problem=kreska pseudotaktowa	!	!	!	!	!	!	!
1AA	-o	1A	Fi-	.	.	2f\	Fi-
.	.	.	.	4c\	.	4e\	.
.	.	.	.	4B\	.	4d\	.
=56-	=56-	=56-	=56-	=56-	=56-	=56-	=56-
2r	.	1A	-li-	2c\	.	2e\	.
!	!	!	!	!LO:TX:t=P:problem=kreska pseudotaktowa	!	!	!
1D	et	.	.	2d\	-li-	2f\	-li-
!	!	!	!	!	!	!LO:TX:t=P:problem=kreska pseudotaktowa	!
!	!	!LO:TX:t=P:problem=kreska pseudotaktowa	!	!	!	!	!
.	.	1A	-o	1A	-o	1e	-o
*custos:D	*	*	*	*	*	*	*
!LO:TX:t=P:problem=kreska pseudotaktowa	!	!	!	!	!	!	!
2C#X/	Spi-	.	.	.	.	.	.
!LO:LB:g=original	!	!	!	!	!	!	!
=57-	=57-	=57-	=57-	=57-	=57-	=57-	=57-
*lig	*	*	*	*	*	*	*
1D	-ri-	1A	et	1F	et	2r	.
.	.	.	.	.	.	1d	et
*col	*	*	*	*	*	*	*
2.AA/	.	1A	Spi-	1E	Spi-	.	.
.	.	.	.	.	.	2c/	spi-
*Xlig	*	*	*	*	*	*	*
!LO:TX:t=P:problem=kreska pseudotaktowa	!	!	!	!	!	!	!
4AA/	-tu-	.	.	.	.	.	.
*Xcol	*	*	*	*	*	*	*
=58-	=58-	=58-	=58-	=58-	=58-	=58-	=58-
*	*	*lig	*	*	*	*	*
2D,/	-i	1A	-ri-	2.F/	-ri-	2d\	-ri-
2.F\	ſan-	.	.	.	.	4c/	.
!	!	!	!	!LO:TX:t=P:problem=kreska pseudotaktowa	!	!LO:TX:t=P:problem=kreska pseudotaktowa	!
.	.	.	.	4F/	-tu-	4B/	.
.	.	1c	.	2C/	-i	2A/	.
8E\L	.	.	.	.	.	.	.
8D\J	.	.	.	.	.	.	.
!LO:TX:t=P:problem=kreska pseudotaktowa	!	!	!	!	!	!	!
2E\	.	.	.	1c\	ſan-	2G/	-tu-
*	*	*Xlig	*	*	*	*	*
=59-	=59-	=59-	=59-	=59-	=59-	=59-	=59-
2.F\	.	1A	-tu-	.	.	2F/	-i
!	!	!	!	!LO:TX:t=P:problem=kreska pseudotaktowa	!	!	!
.	.	.	.	2A/	-cto	2.f\	ſan-
4E\	.	.	.	.	.	.	.
!	!	!LO:TX:t=P:problem=kreska pseudotaktowa	!	!	!	!	!
2D/	.	1A	-i	2r	.	.	.
.	.	.	.	.	.	8e\L	.
.	.	.	.	.	.	8d\J	.
*	*	*	*	*	*	*custos:f	*
!LO:TX:t=P:problem=kreska pseudotaktowa	!	!	!	!	!	!LO:TX:t=P:problem=kreska pseudotaktowa	!
2C/	.	.	.	2.e\	ſan-	2e\	.
!	!	!	!	!	!	!LO:LB:g=original	!
=60-	=60-	=60-	=60-	=60-	=60-	=60-	=60-
*	*	*lig	*	*	*	*lig	*
1D	.	1A	ſan-	.	.	1f	.
.	.	.	.	4d\	.	.	.
.	.	.	.	1d	.	.	.
*	*	*	*	*	*	*col	*
0E	.	1G	.	.	.	2.e/	.
!	!	!	!	!LO:TX:t=P:problem=# below	!	!	!
.	.	.	.	4c#X\	.	.	.
!	!	!	!	!LO:TX:t=P:problem=kreska pseudotaktowa	!	!	!
!	!	!	!	!LO:TX:t=P:problem=# below	!	!LO:TX:t=P:problem=kreska pseudotaktowa	!
.	.	.	.	4B\	.	4d\	.
*	*	*Xlig	*	*	*	*Xlig	*
=61-	=61-	=61-	=61-	=61-	=61-	=61-	=61-
*	*	*lig	*	*	*	*	*
.	.	1G	-cto	1c#X	.	4e\	.
.	.	.	.	.	.	4f\	.
.	.	.	.	.	.	1g	.
*	*	*custos:G	*	*	*	*	*
!	!	!LO:TX:t=P:problem=kreska pseudotaktowa	!	!	!	!	!
1D	.	1A	.	2.d\	.	.	.
!	!	!	!	!	!	!LO:TX:t=P:problem=# below	!
.	.	.	.	.	.	2f#X\	-cto
*	*	*	*	*custos:B	*	*	*
!	!	!	!	!LO:TX:t=P:problem=kreska pseudotaktowa	!	!	!
.	.	.	.	4c#\	.	.	.
*	*	*Xlig	*	*	*	*	*
!	!	!LO:LB:g=original	!	!LO:LB:g=original	!	!	!
=62-	=62-	=62-	=62-	=62-	=62-	=62-	=62-
*	*	*lig	*	*	*	*	*
!	!	!	!	!	!	!LO:TX:t=P:problem=kreska pseudotaktowa	!
2GG,/	-cto.	1G	Si-	2B\	.	1g	.
!LO:TX:t=P:problem=kreska pseudotaktowa	!	!	!	!	!	!	!
2C/	Si-	.	.	2c\	.	.	.
2D/	-cut	1F	.	4A/	-cto	1r	.
.	.	.	.	4G/	.	.	.
2.F\	e-	.	.	4A/	.	.	.
!	!	!	!	!LO:TX:t=P:problem=kreska pseudotaktowa	!	!	!
.	.	.	.	4B\	.	.	.
*	*	*Xlig	*	*	*	*	*
=63-	=63-	=63-	=63-	=63-	=63-	=63-	=63-
*	*	*lig	*	*	*	*	*
.	.	1G	-cut	0c	.	1r	.
8E\L	.	.	.	.	.	.	.
8D\J	.	.	.	.	.	.	.
!LO:TX:t=P:problem=kreska pseudotaktowa	!	!	!	!	!	!	!
2E\	.	.	.	.	.	.	.
!	!	!LO:TX:t=P:problem=kreska pseudotaktowa	!	!	!	!	!
2.F\	.	1A	.	.	.	2r	.
!	!	!	!	!	!	!LO:TX:t=P:problem=kreska pseudotaktowa	!
.	.	.	.	.	.	2c/	Si-
4E\	.	.	.	.	.	.	.
*	*	*Xlig	*	*	*	*	*
=64-	=64-	=64-	=64-	=64-	=64-	=64-	=64-
*lig	*	*	*	*	*	*	*
1D	.	1A	e-	2r	.	2d\	-cut
.	.	.	.	1d	Si-	2.f\	e-
!	!	!LO:TX:t=P:problem=kreska pseudotaktowa	!	!	!	!	!
1AA	.	1A	-rat	.	.	.	.
.	.	.	.	.	.	8e\L	.
.	.	.	.	.	.	8d\J	.
!	!	!	!	!	!	!LO:TX:t=P:problem=kreska pseudotaktowa	!
!	!	!	!	!LO:TX:t=P:problem=# below	!	!	!
!	!	!	!	!LO:TX:t=P:problem=kreska pseudotaktowa	!	!	!
.	.	.	.	2c#X\	-cut	2e\	.
*Xlig	*	*	*	*	*	*	*
=65-	=65-	=65-	=65-	=65-	=65-	=65-	=65-
2D/	-rat	1A	in	2.d\	e-	1f	-rat
!LO:TX:t=P:problem=kreska pseudotaktowa	!	!	!	!	!	!	!
2D/	in	.	.	.	.	.	.
.	.	.	.	4d\	-rat	.	.
2D/	prin-	1A	prin-	2d\	in	2.f\	in
!	!	!	!	!LO:TX:t=P:problem=kreska pseudotaktowa	!	!	!
4D/	-ci-	.	.	2D/	prin-	.	.
!LO:TX:t=P:problem=kreska pseudotaktowa	!	!	!	!	!	!	!
4E\	.	.	.	.	.	4e\	prin-
=66-	=66-	=66-	=66-	=66-	=66-	=66-	=66-
4F\	.	1A	-ci-	4D/	-ci-	2d\	-ci-
*custos:A	*	*	*	*	*	*	*
4G\	.	.	.	4E/	.	.	.
!LO:LB:g=original	!	!	!	!	!	!LO:TX:t=P:problem=kreska pseudotaktowa	!
4A\	.	.	.	4F/	.	2c/	-pi-
!LO:TX:t=P:problem=kreska pseudotaktowa	!	!	!	!LO:TX:t=P:problem=kreska pseudotaktowa	!	!	!
4G\	.	.	.	4G/	.	.	.
4F\	.	1A	-pi-	4A/	.	2c/	-o
4E\	.	.	.	4G/	.	.	.
1D\	.	.	.	4F/	.	2d\	in
!	!	!	!	!LO:TX:t=P:problem=kreska pseudotaktowa	!	!	!
.	.	.	.	4E/	.	.	.
=67-	=67-	=67-	=67-	=67-	=67-	=67-	=67-
!	!	!LO:TX:t=P:problem=kreska pseudotaktowa	!	!	!	!	!
.	.	1A	-o	4F/	.	2d\	prin-
.	.	.	.	4E/	.	.	.
!LO:TX:t=P:problem=kreska pseudotaktowa	!	!	!	!	!	!	!
2D/	-pi-	.	.	4F/	.	4d\	-ci-
!	!	!	!	!	!	!LO:TX:t=P:problem=kreska pseudotaktowa	!
.	.	.	.	4G/	.	4e\	.
2D,/	-o	1A	et	2A/	.	4f\	.
.	.	.	.	.	.	4g\	.
!	!	!	!	!LO:TX:t=P:problem=kreska pseudotaktowa	!	!	!
1F\	et	.	.	2D/	-pi-	4a\	.
!	!	!	!	!	!	!LO:TX:t=P:problem=kreska pseudotaktowa	!
.	.	.	.	.	.	4g\	.
=68-	=68-	=68-	=68-	=68-	=68-	=68-	=68-
*	*	*lig	*	*	*	*	*
.	.	1A	nunc	2D/	-o	4f\	.
.	.	.	.	.	.	4e\	.
!LO:TX:t=P:problem=kreska pseudotaktowa	!	!	!	!LO:TX:t=P:problem=kreska pseudotaktowa	!	!	!
2D/	nunc	.	.	2F/	et	1f	.
!	!	!LO:TX:t=P:problem=kreska pseudotaktowa	!	!	!	!	!
1C,	et	1c	.	2G/	nunc	.	.
.	.	.	.	2G/	et	2e\	-pi-
*	*	*Xlig	*	*	*	*	*
=69-	=69-	=69-	=69-	=69-	=69-	=69-	=69-
!	!	!	!	!	!	!LO:TX:t=P:problem=kreska pseudotaktowa	!
2D/	ſem-	1A	et	2F/	ſem-	1d	-o
4C/	.	.	.	4E/	.	.	.
!LO:TX:t=P:problem=kreska pseudotaktowa	!	!	!	!LO:TX:t=P:problem=kreska pseudotaktowa	!	!	!
4BB/	.	.	.	4D/	.	.	.
*	*	*lig	*	*	*	*	*
2C/	.	1A	ſem-	2E/	.	2r	.
*	*	*	*	*custos:G	*	*custos:d	*
!	!	!	!	!LO:TX:t=P:problem=kreska pseudotaktowa	!	!LO:TX:t=P:problem=kreska pseudotaktowa	!
2D/	.	.	.	2F/	.	2d\	et
!	!	!	!	!LO:LB:g=original	!	!LO:LB:g=original	!
=70-	=70-	=70-	=70-	=70-	=70-	=70-	=70-
2.GG/	.	1G	.	4G/	.	1.d	nunc
.	.	.	.	4A/	.	.	.
.	.	.	.	4B\	.	.	.
!	!	!	!	!LO:TX:t=P:problem=kreska pseudotaktowa	!	!	!
!LO:TX:t=P:problem=kreska pseudotaktowa	!	!	!	!	!	!	!
4AA/	.	.	.	4c\	.	.	.
*	*	*Xlig	*	*	*	*	*
*	*	*lig	*	*	*	*	*
2BB/	.	1G	-per	2d\	.	.	.
!LO:TX:t=P:problem=kreska pseudotaktowa	!	!	!	!	!	!LO:TX:t=P:problem=kreska pseudotaktowa	!
2C/	.	.	.	4c\	.	2e\	et
!	!	!	!	!LO:TX:t=P:problem=kreska pseudotaktowa	!	!	!
.	.	.	.	4B\	.	.	.
=71-	=71-	=71-	=71-	=71-	=71-	=71-	=71-
!	!	!LO:TX:t=P:problem=kreska pseudotaktowa	!	!	!	!	!
4FF/	.	1A	.	1c	.	2f\	ſem-
4GG/	.	.	.	.	.	.	.
4AA/	.	.	.	.	.	4e\	.
!LO:TX:t=P:problem=kreska pseudotaktowa	!	!	!	!	!	!	!
4BB/	.	.	.	.	.	4d\	.
!LO:TX:t=P:problem=kreska pseudotaktowa	!	!	!	!	!	!	!
*lig	*	*Xlig	*	*	*	*	*
*	*	*lig	*	*	*	*	*
1C	.	1G	et	2c\	-per	1e	.
.	.	.	.	2.c\	ſem-	.	.
=72-	=72-	=72-	=72-	=72-	=72-	=72-	=72-
!	!	!LO:TX:t=P:problem=kreska pseudotaktowa	!	!	!	!	!
1D	.	1F	.	.	.	2d\	.
.	.	.	.	8B\L	.	.	.
.	.	.	.	8A\J	.	.	.
!	!	!	!	!LO:TX:t=P:problem=kreska pseudotaktowa	!	!	!
.	.	.	.	2B\	.	1f	.
*Xlig	*	*Xlig	*	*	*	*	*
!LO:TX:t=P:problem=kreska pseudotaktowa	!	!	!	!	!	!	!
*	*	*lig	*	*	*	*	*
1C	.	1G	in	1c	-per	.	.
!	!	!	!	!	!	!LO:TX:t=P:problem=kreska pseudotaktowa	!
.	.	.	.	.	.	2e\	.
=73-	=73-	=73-	=73-	=73-	=73-	=73-	=73-
*	*	*custos:A	*	*	*	*	*
!	!	!LO:TX:t=P:problem=kreska pseudotaktowa	!	!	!	!	!
2FF,/	-per	1A	.	2c\	et	2f\	-per
!	!	!	!	!LO:TX:t=P:problem=kreska pseudotaktowa	!	!	!
1F	et	.	.	2c\	in	1f	et
*	*	*Xlig	*	*	*	*	*
.	.	1A	ſæ-	4c\	ſe-	.	.
.	.	.	.	4A/	.	.	.
!LO:TX:t=P:problem=kreska pseudotaktowa	!	!	!	!	!	!	!
2D/	in	.	.	1d\	.	2f\	in
!	!	!LO:LB:g=original	!	!	!	!	!
=74-	=74-	=74-	=74-	=74-	=74-	=74-	=74-
2A\	ſæ-	1A	-u-	.	.	1.e	ſæ-
!	!	!	!	!LO:TX:t=P:problem=# below	!	!	!
2AA/	-cu-	.	.	4c#X\	.	.	.
!	!	!	!	!LO:TX:t=P:problem=kreska pseudotaktowa	!	!	!
.	.	.	.	4B\	.	.	.
!LO:TX:t=P:problem=kreska pseudotaktowa	!	!LO:TX:t=P:problem=kreska pseudotaktowa	!	!LO:TX:t=P:problem=# below	!	!	!
1AA	-la	1A	-la	2c#X\	.	.	.
!	!	!	!	!	!	!LO:TX:t=P:problem=kreska pseudotaktowa	!
.	.	.	.	2c#\	-cu-	2e\	-cu-
=75-	=75-	=75-	=75-	=75-	=75-	=75-	=75-
2.D/	ſæ-	1A	ſæ-	2d\	-la	2f,\	-la
!	!	!	!	!LO:TX:t=P:problem=kreska pseudotaktowa	!	!	!
.	.	.	.	2d\	ſæ-	1f	ſæ-
*custos:F	*	*	*	*	*	*	*
!LO:TX:t=P:problem=kreska pseudotaktowa	!	!	!	!	!	!	!
4E\	.	.	.	.	.	.	.
!LO:LB:g=original	!	!	!	!	!	!	!
*	*	*lig	*	*	*	*	*
2F\	.	1A	-cu-	2cny\	-cu-	.	.
!	!	!	!	!	!	!LO:TX:t=P:problem=kreska pseudotaktowa	!
2F\	-cu-	.	.	2.A/	-lo-	2d\	-cu-
=76-	=76-	=76-	=76-	=76-	=76-	=76-	=76-
!LO:TX:t=P:problem=kreska pseudotaktowa	!	!	!	!	!	!	!
1E	-lo-	1B	.	.	.	1e	-lo-
.	.	.	.	8G/L	.	.	.
!	!	!	!	!LO:TX:t=P:problem=# below	!	!	!
.	.	.	.	8F#X/J	.	.	.
!	!	!	!	!LO:TX:t=P:problem=kreska pseudotaktowa	!	!	!
.	.	.	.	2G/	.	.	.
*	*	*Xlig	*	*	*	*	*
*	*	*lig	*	*	*	*	*
2.AA/	-rum	1c	.	1A	-rum	2e,\	-rum
.	.	.	.	.	.	1e\	A-
4BB/	.	.	.	.	.	.	.
=77-	=77-	=77-	=77-	=77-	=77-	=77-	=77-
2C/	.	1A	.	2r	.	.	.
!LO:TX:t=P:problem=kreska pseudotaktowa	!	!	!	!	!	!	!
2D/	.	.	.	2.d\	A-	2f\	.
!	!	!	!	!	!	!LO:TX:t=P:problem=kreska pseudotaktowa	!
*	*	*Xlig	*	*	*	*	*
4GG/	A-	1G	-lo-	.	.	2g\	-men
4AA/	.	.	.	4c\	.	.	.
*	*	*	*	*	*	*lig	*
4BB/	.	.	.	2B\	.	1d\	A-
!LO:TX:t=P:problem=kreska pseudotaktowa	!	!	!	!	!	!	!
4C/	.	.	.	.	.	.	.
=78-	=78-	=78-	=78-	=78-	=78-	=78-	=78-
!	!	!LO:TX:t=P:problem=kreska pseudotaktowa	!	!	!	!	!
0D	.	1F	-rum	0A	-men	.	.
*	*	*	*	*	*	*col	*
.	.	.	.	.	.	2.f\	.
*	*	*lig	*	*	*	*	*
.	.	1F	A-	.	.	.	.
*	*	*	*	*	*	*Xlig	*
.	.	.	.	.	.	4e\	.
*	*	*	*	*	*	*Xcol	*
.	.	.	.	.	.	1d\	.
=79-	=79-	=79-	=79-	=79-	=79-	=79-	=79-
1AA	.	1E	.	1A	A-	.	.
!	!	!	!	!	!	!LO:TX:t=P:problem=# below	!
.	.	.	.	.	.	2c#X/	.
*	*	*Xlig	*	*	*	*	*
1D	-men.	1D	-men	1A;	-men	1d	-men.
==-	==-	==-	==-	==-	==-	==-	==-
*-	*-	*-	*-	*-	*-	*-	*-
!!!system-decoration: s1,s2,s3,s4
!!!ENC: Mateusz Solarz
!!!END: 2022-01-18
!!!ENC: Urszula Świątek
!!!END: 2022-01-20
